X: 98
T: Three Forks Of Cheat
B: canberra pickers and fiddlers
B: old time tunes update
B: tunes
M:C|
L:1/8
Q: 1/4=100
K:A
V:1 
AB|c2c2 cc (3BcB AB| cABA FAAB|c2 cd (3BcB AB|cABA FAAB|
cd c2 (3BcB AB|cABA FAAB|A2 AF E2CC|DCB,D CA,A,C||
E2EF A,2Ac|BAcA BAFE|A2 AF ECA,C|DCB,D CA,A,C|
E2 EF ECA,C|B,A,B,D CDEG|A2A2 CA,CA,|B,A,B,D CA,A,C|
E2 EF A,2cB| ABAc BAFE|A2 AF E2C2|DCB,D CA,A,C|
E2 EF A,2Ac|[M:3/2]BAcA BAFE A2A2||[M:C|]ce-ef [c3c3][cc]|A2Ac B[c2c2][cc]|e2 ef [c2c2][cc]B|
A[cc]BA F[A2A2]B|ceef c2 cc|Bccc Bccc|e2 ef c2 cB|AcBA F[AA][AA]B||   
% abcbook-tune_id 67a7d9ecfa88e58995b87a4f
% abcbook-tune_composer_id 
% abcbook-link-0 https://www.youtube.com/watch?v=1tqCYMyQTSQ
% abcbook-link-title-0 Three Forks of Cheat
% abcbook-boost 0
% abcbook-difficulty 0
% abcbook-tags old time tunes
% abcbook-tablature 
% abcbook-transpose 
% abcbook-tuning AEAC#
% abcbook-lastupdated 1739245363779
% abcbook-src-url 
% abcbook-soundfonts 
% abcbook-repeats 1


